Yaru++/apps/scalable/netflix.svg

<svg height="256" width="256" xmlns="http://www.w3.org/2000/svg" xmlns:xlink="http://www.w3.org/1999/xlink">
  <filter id="filter904" color-interpolation-filters="sRGB" height="1.019" width="1.032" x="-.02" y="-.01">
    <feGaussianBlur stdDeviation=".915"/>
  </filter>
  <filter id="filter922" color-interpolation-filters="sRGB" height="1.077" width="1.128" x="-.06" y="-.04">
    <feGaussianBlur stdDeviation="3.661"/>
  </filter>
  <g transform="translate(26.033898 -63.525424)">
    <g fill="#0b0b0b">
      <path d="m35.616102 78.063839v228.832671l45.767333-5.72043v-112.79219l46.669185 112.49493 44.86348 6.01769v-228.832671h-45.76731l.46887 115.585571-46.234225-115.585571z" filter="url(#filter922)" opacity=".1"/>
      <path d="m35.616102 78.063839v228.832671l45.767333-5.72043v-112.79219l46.669185 112.49493 44.86348 6.01769v-228.832671h-45.76731l.46887 115.585571-46.234225-115.585571z" filter="url(#filter904)" opacity=".1"/>
      <path d="m35.616102 78.063839v228.832671l45.767333-5.72043v-112.79219l46.669185 112.49493 44.86348 6.01769v-228.832671h-45.76731l.46887 115.585571-46.234225-115.585571z" opacity=".1"/>
    </g>
    <path d="m126.91554 80.897122h44.8v224.000008l-43.91632-5.89455z" fill="#d44338"/>
    <path d="m37.315538 80.897122v224.000008l44.8-5.6v-218.400008z" fill="#d44338"/>
    <path d="m37.315538 80.897122 90.484802 218.108818 43.9152 5.89119-89.600002-224.000008z" fill="#ff695e"/>
    <path d="m37.314758 80.897122v2h44.80078l45.257812 113.144538-.008-2.01953-45.249812-113.125008zm89.599612 0 .008 2h44.79297v-2z" fill="#fff" opacity=".3"/>
    <path d="m126.91476 80.897128.45117 111.125002.008.0195-.45117-111.144532zm-44.798834 105.990232v2l45.683604 110.11914 43.91601 5.89063v-2l-43.91601-5.89063zm0 110.41016-44.80078 5.59961v2l44.80078-5.59961z" opacity=".2"/>
  </g>
</svg>

<svg xmlns="http://www.w3.org/2000/svg" xmlns:xlink="http://www.w3.org/1999/xlink" width="256" height="256" version="1.0">
 <defs>
  <linearGradient id="a">
   <stop id="stop2" offset="0" stop-color="#68676b"/>
   <stop id="stop4" offset=".8" stop-color="#424048"/>
   <stop id="stop6" offset="1" stop-color="#808080"/>
  </linearGradient>
  <radialGradient id="d" cx="279.422" cy="446.483" r="224" fx="279.422" fy="446.483" gradientTransform="matrix(1.34416,6e-4,-6.2e-4,1.38763,-121.22,-718.103)" gradientUnits="userSpaceOnUse" xlink:href="#a"/>
  <linearGradient id="e" x1="43.844" x2="-60" y1="234" y2="234" gradientTransform="matrix(1.0015,0,0,0.99993,72.09,56.015)" gradientUnits="userSpaceOnUse" xlink:href="#b"/>
  <linearGradient id="b">
   <stop id="stop11" offset="0" stop-color="#d5d3cf"/>
   <stop id="stop13" offset=".038" stop-color="#e3e2df"/>
   <stop id="stop15" offset=".077" stop-color="#c0bfbc"/>
   <stop id="stop17" offset=".923" stop-color="#c0bfbc"/>
   <stop id="stop19" offset=".962" stop-color="#e3e2df"/>
   <stop id="stop21" offset="1" stop-color="#d5d3cf"/>
  </linearGradient>
  <linearGradient id="linearGradient855" x1="10.91" x2="55.432" y1="144.662" y2="419.977" gradientTransform="matrix(0.54466512,0,0,0.54466512,154.61964,28.033737)" gradientUnits="userSpaceOnUse" xlink:href="#linearGradient853"/>
  <linearGradient id="linearGradient853">
   <stop style="stop-color:#2996dd" id="stop849" offset="0"/>
   <stop style="stop-color:#017bcc" id="stop851" offset="1"/>
  </linearGradient>
  <linearGradient id="linearGradient865" x1="-215.711" x2="14.721" y1="422.232" y2="401.94" gradientTransform="matrix(0.54466512,0,0,0.54466512,154.61964,28.033737)" gradientUnits="userSpaceOnUse" xlink:href="#linearGradient863"/>
  <linearGradient id="linearGradient863">
   <stop style="stop-color:#006eb4" id="stop859" offset="0"/>
   <stop id="stop867" offset=".968" style="stop-color:#006cb0"/>
   <stop style="stop-color:#00609d" id="stop861" offset="1"/>
  </linearGradient>
  <filter style="color-interpolation-filters:sRGB" id="filter904" width="1.032" height="1.019" x="-.02" y="-.01">
   <feGaussianBlur id="feGaussianBlur906" stdDeviation=".915"/>
  </filter>
  <filter style="color-interpolation-filters:sRGB" id="filter922" width="1.128" height="1.077" x="-.06" y="-.04">
   <feGaussianBlur id="feGaussianBlur924" stdDeviation="3.661"/>
  </filter>
 </defs>
 <g transform="translate(26.033898,-63.525424)">
  <path style="fill:#0b0b0b;opacity:0.1;filter:url(#filter922)" d="M 35.616102,78.063839 V 306.89651 l 45.767333,-5.72043 V 188.38389 l 46.669185,112.49493 44.86348,6.01769 V 78.063839 H 127.14879 L 127.61766,193.64941 81.383435,78.063839 Z"/>
  <path d="M 35.616102,78.063839 V 306.89651 l 45.767333,-5.72043 V 188.38389 l 46.669185,112.49493 44.86348,6.01769 V 78.063839 H 127.14879 L 127.61766,193.64941 81.383435,78.063839 Z" style="fill:#0b0b0b;opacity:0.1;filter:url(#filter904)"/>
  <path style="fill:#0b0b0b;opacity:0.1" d="M 35.616102,78.063839 V 306.89651 l 45.767333,-5.72043 V 188.38389 l 46.669185,112.49493 44.86348,6.01769 V 78.063839 H 127.14879 L 127.61766,193.64941 81.383435,78.063839 Z"/>
  <path style="fill:#d44338" d="m 126.91554,80.897122 h 44.8 V 304.89713 l -43.91632,-5.89455 z"/>
  <path style="fill:#d44338" d="M 37.315538,80.897122 V 304.89713 l 44.8,-5.6 V 80.897122 Z"/>
  <path style="fill:#ff695e" d="m 37.315538,80.897122 90.484802,218.108818 43.9152,5.89119 L 82.115538,80.897122 Z"/>
  <path style="fill:#ffffff;opacity:0.3" d="m 37.314758,80.897122 v 2 h 44.80078 l 45.257812,113.144538 -0.008,-2.01953 L 82.115538,80.897122 Z m 89.599612,0 0.008,2 h 44.79297 v -2 z"/>
  <path style="opacity:0.2" d="m 126.91476,80.897128 0.45117,111.125002 0.008,0.0195 -0.45117,-111.144532 z M 82.115926,186.88736 v 2 l 45.683604,110.11914 43.91601,5.89063 v -2 l -43.91601,-5.89063 z m 0,110.41016 -44.80078,5.59961 v 2 l 44.80078,-5.59961 z"/>
 </g>
</svg>
